X: 619
T: Tiao cai
%%abc-version 2.0
%%abcx-abcm2ps-target-version 5.9.1 (29 Sep 2008)
%%abc-creator hum2abc beta
%%abcx-conversion-date 2013/10/02 07:52:30
%%abc-edited-by Helmut Schaffrath
%%humdrum-veritas 4197146753
%%humdrum-veritas-data 423565681
%%continueall 1
%%barnumbers 0
L: 1/8
M: 2/4
K: F
F G d c [I:setbarnb 1]| 
G2B c | 
G F C F | 
F2G2 | 
c2d/ f/ d/ c/ | 
B2G f | 
d c B G | 
F4 |]  



